X: 36407
T: Sean Tiobrad Arann
R: jig
M: 6/8
K: Gmajor
"D"dcA "G"~G3|"D/A"AGF "G"~G3|"D"dcA "G"~G3|"D/A"AGE F2 A|
"D"dcA "G"~G3|"D/A"AGF "G"G2 d|"D"fdd "(D/C"edd|"Bm7"fdd "D/A)"cAF:|
"G"GBd ~g3|"C"gaf ~g2f|"G/B"d2g gfg|"Am"~a2g "D"fga|
"Em"bc'b "D"agf|"C"gfe "Bm"~f2 e|"D"dcA "(D/C"cde|"Bm7"fed "D/A)"cAF:|

